assets/icons/qvision/notifications.svg

<svg xmlns="http://www.w3.org/2000/svg" height="24" viewBox="0 0 24 24" width="24"><path d="M12 22c1.1 0 2-.9 2-2h-4c0 1.1.89 2 2 2zm6-6v-5c0-3.07-1.64-5.64-4.5-6.32V4c0-.83-.67-1.5-1.5-1.5s-1.5.67-1.5 1.5v.68C7.63 5.36 6 7.92 6 11v5l-2 2v1h16v-1l-2-2z"/></svg>

<svg width="24" height="24" viewBox="0 0 24 24" fill="none" xmlns="http://www.w3.org/2000/svg">
<path d="M12 22C13.1 22 14 21.1 14 20H10C10 21.1 10.89 22 12 22ZM18 16V11C18 7.93 16.36 5.36 13.5 4.68V4C13.5 3.17 12.83 2.5 12 2.5C11.17 2.5 10.5 3.17 10.5 4V4.68C7.63 5.36 6 7.92 6 11V16L4 18V19H20V18L18 16Z" fill="#323232"/>
</svg>
